Sources/FrostedUI/Resources/Icons.xcassets/palette20.imageset/palette-20.svg

<svg width="20" height="20" viewBox="0 0 20 20" fill="none" xmlns="http://www.w3.org/2000/svg" data-fui-icon="true">
  <path
    d="M10 1C14.9706 1 19 5.02944 19 10C19 10.0796 18.9991 10.1591 18.9971 10.2383C18.9562 11.8075 17.556 12.7529 16.2002 12.7529H12.8213C12.1 12.7529 11.4731 13.2479 11.3047 13.9492L10.6309 16.7568C10.3276 18.0203 9.08599 19.0802 7.63184 18.6846C3.81077 17.6449 1 14.1518 1 10C1 5.02944 5.02944 1 10 1ZM10 2.5C5.85786 2.5 2.5 5.85786 2.5 10C2.5 13.4578 4.84074 16.3707 8.02539 17.2373C8.46971 17.3582 9.01589 17.0569 9.17188 16.4072L9.8457 13.5996C10.1759 12.2238 11.4064 11.2529 12.8213 11.2529H16.2002C16.9652 11.2529 17.4827 10.75 17.4971 10.1992C17.4988 10.1331 17.5 10.0666 17.5 10C17.5 5.85786 14.1421 2.5 10 2.5ZM6.5 11.5C7.05228 11.5 7.5 11.9477 7.5 12.5C7.5 13.0523 7.05228 13.5 6.5 13.5C5.94772 13.5 5.5 13.0523 5.5 12.5C5.5 11.9477 5.94772 11.5 6.5 11.5ZM6 7C6.55228 7 7 7.44772 7 8C7 8.55228 6.55228 9 6 9C5.44772 9 5 8.55228 5 8C5 7.44772 5.44772 7 6 7ZM14 7C14.5523 7 15 7.44772 15 8C15 8.55228 14.5523 9 14 9C13.4477 9 13 8.55228 13 8C13 7.44772 13.4477 7 14 7ZM10 4.5C10.5523 4.5 11 4.94772 11 5.5C11 6.05228 10.5523 6.5 10 6.5C9.44771 6.5 9 6.05228 9 5.5C9 4.94772 9.44771 4.5 10 4.5Z"
    fill="currentColor"
  />
</svg>

<svg xmlns="http://www.w3.org/2000/svg" width="20" height="20" fill="none" data-fui-icon="true" viewBox="0 0 20 20"><path fill="currentColor" d="M10 1a9 9 0 0 1 8.997 9.238c-.04 1.57-1.441 2.515-2.797 2.515h-3.379a1.56 1.56 0 0 0-1.516 1.196l-.674 2.808c-.303 1.263-1.545 2.323-3 1.928A9 9 0 0 1 10 1m0 1.5a7.5 7.5 0 0 0-1.975 14.737c.445.121.99-.18 1.147-.83l.674-2.807a3.06 3.06 0 0 1 2.975-2.347h3.38c.764 0 1.282-.503 1.296-1.054L17.5 10A7.5 7.5 0 0 0 10 2.5m-3.5 9a1 1 0 1 1 0 2 1 1 0 0 1 0-2M6 7a1 1 0 1 1 0 2 1 1 0 0 1 0-2m8 0a1 1 0 1 1 0 2 1 1 0 0 1 0-2m-4-2.5a1 1 0 1 1 0 2 1 1 0 0 1 0-2"/></svg>
